brandFactory_export/1.Light/Portatil cargando_1Light.svg

<?xml version="1.0" encoding="UTF-8"?>
<svg width="24px" height="24px" viewBox="0 0 24 24" version="1.1" xmlns="http://www.w3.org/2000/svg" xmlns:xlink="http://www.w3.org/1999/xlink">
    <title>1.Light/Portatil cargando_1Light</title>
    <g id="Symbols" stroke="none" stroke-width="1" fill="none" fill-rule="evenodd">
        <g id="1.Light/Portatil-cargando_1Light" fill="#5CB615" fill-rule="nonzero">
            <path d="M9.22352941,9.11260504 L9.22352941,14.8504202 C9.22352941,15.2369748 9.31092437,15.5092437 9.48571429,15.6806723 C9.66386555,15.8487395 9.9394958,15.9327731 10.3361345,15.9327731 L13.287395,15.9327731 C13.6840336,15.9327731 13.9596639,15.8487395 14.1378151,15.6806723 C14.3159664,15.5092437 14.4,15.2369748 14.4,14.8504202 L14.4,9.11260504 C14.4,8.72941176 14.3159664,8.45714286 14.1378151,8.28571429 C13.9596639,8.11428571 13.6840336,8.0302521 13.287395,8.0302521 L10.3361345,8.0302521 C9.94285714,8.0302521 9.66722689,8.11428571 9.48907563,8.29243697 C9.30756303,8.46722689 9.22352941,8.73613445 9.22352941,9.11260504 L9.22352941,9.11260504 Z M11.0655462,6.94117647 C11.0420168,6.96470588 11.0285714,7.02521008 11.0285714,7.1092437 L11.0285714,7.31428571 L12.6016807,7.31428571 L12.6016807,7.1092437 C12.6016807,7.02521008 12.5882353,6.96134454 12.5613445,6.94117647 C12.5411765,6.9210084 12.4773109,6.90756303 12.389916,6.90756303 L11.2369748,6.90756303 C11.1966387,6.90420168 11.0991597,6.90756303 11.0655462,6.94117647 L11.0655462,6.94117647 Z M10.3361345,16.6521008 C9.73781513,16.6521008 9.2907563,16.5008403 8.96806723,16.1915966 C8.64537815,15.8789916 8.48739496,15.4420168 8.48739496,14.8537815 L8.48739496,9.11260504 C8.48739496,8.53445378 8.64537815,8.10084034 8.96470588,7.78823529 C9.28067227,7.47563025 9.71428571,7.32436975 10.292437,7.31764706 L10.292437,7.10588235 C10.292437,6.82352941 10.3764706,6.59831933 10.5445378,6.43697479 C10.712605,6.27226891 10.9478992,6.18823529 11.2403361,6.18823529 L12.3932773,6.18823529 C12.6857143,6.18823529 12.9210084,6.26890756 13.0890756,6.43361345 C13.2571429,6.59831933 13.3411765,6.82689076 13.3411765,7.1092437 L13.3411765,7.3210084 C13.9193277,7.32773109 14.3563025,7.4789916 14.6689076,7.78487395 C14.9915966,8.10084034 15.1462185,8.53445378 15.1462185,9.11596639 L15.1462185,14.8571429 C15.1462185,15.4453782 14.9882353,15.8857143 14.6655462,16.194958 C14.3462185,16.5042017 13.8991597,16.6554622 13.3008403,16.6554622 C13.287395,16.6521008 10.3361345,16.6521008 10.3361345,16.6521008 L10.3361345,16.6521008 Z M11.512605,10.3226891 L10.6957983,12.2487395 L11.7277311,12.1109244 L11.7613445,12.107563 C11.8218487,12.107563 11.8756303,12.1277311 11.9226891,12.1680672 C11.9764706,12.2117647 12.0067227,12.2789916 12.0067227,12.3495798 L12.0033613,13.5327731 L12.9210084,11.4689076 L11.7781513,11.6235294 C11.707563,11.6336134 11.6369748,11.610084 11.5831933,11.5663866 C11.5294118,11.5193277 11.4991597,11.4554622 11.4991597,11.3848739 L11.512605,10.3226891 L11.512605,10.3226891 Z M10.3394958,12.7798319 C10.2521008,12.7932773 10.1680672,12.7563025 10.1109244,12.6890756 C10.0571429,12.6218487 10.0436975,12.5310924 10.0773109,12.4537815 L11.5428571,8.99159664 C11.5932773,8.88739496 11.7042017,8.8302521 11.8184874,8.85042017 C11.9327731,8.87058824 12.0168067,8.97142857 12.0168067,9.08571429 L11.9932773,11.112605 L13.287395,10.9378151 C13.3747899,10.9277311 13.4588235,10.9613445 13.5159664,11.0285714 C13.5697479,11.0991597 13.5798319,11.189916 13.5462185,11.2672269 L11.9831933,14.7798319 C11.9361345,14.8840336 11.8218487,14.9411765 11.707563,14.9176471 C11.5932773,14.897479 11.512605,14.8 11.512605,14.6823529 L11.5159664,12.6184874 C11.512605,12.6218487 10.3394958,12.7798319 10.3394958,12.7798319 L10.3394958,12.7798319 Z M1.01176471,7.67058824 L1.01176471,14.9815126 C1.01176471,15.892437 1.23361345,16.5747899 1.67058824,17.0184874 C2.12436975,17.4756303 2.84369748,17.707563 3.81176471,17.707563 L19.8084034,17.7008403 C20.7764706,17.7008403 21.4991597,17.4689076 21.9495798,17.0117647 C22.3865546,16.5680672 22.6117647,15.8857143 22.6117647,14.9747899 L22.6117647,7.6605042 C22.6117647,6.75630252 22.389916,6.07731092 21.9529412,5.64369748 C21.502521,5.19663866 20.7831933,4.96806723 19.8084034,4.96806723 L3.81512605,4.97815126 C2.84033613,4.97815126 2.11764706,5.20336134 1.67058824,5.65378151 C1.23361345,6.08403361 1.01176471,6.76302521 1.01176471,7.67058824 L1.01176471,7.67058824 Z M3.81512605,18.6588235 C2.56806723,18.6588235 1.61008403,18.3294118 0.964705882,17.6773109 C0.342857143,17.0521008 0.0302521008,16.1445378 0.0302521008,14.9781513 L0.0302521008,7.67058824 C0.0302521008,6.50756303 0.346218487,5.60336134 0.968067227,4.98487395 C1.61008403,4.34621849 2.56806723,4.02352941 3.81848739,4.02352941 L19.8117647,4.01344538 C21.0588235,4.01344538 22.0168067,4.33613445 22.6588235,4.97815126 C23.2806723,5.59663866 23.5966387,6.49747899 23.5966387,7.6605042 L23.5966387,14.9714286 C23.5966387,16.1344538 23.2806723,17.0453782 22.6621849,17.6705882 C22.0168067,18.3226891 21.0588235,18.6521008 19.8117647,18.6521008 L3.81512605,18.6588235 L3.81512605,18.6588235 Z M23.112605,19.7647059 C23.3848739,19.7647059 23.6033613,19.9764706 23.6033613,20.2420168 C23.6,20.5109244 23.3781513,20.7226891 23.112605,20.7193277 L0.51092437,20.7193277 C0.245378151,20.7226891 0.0235294118,20.5109244 0.0201680672,20.2453782 L0.0201680672,20.2420168 C0.0201680672,19.9798319 0.238655462,19.7647059 0.51092437,19.7647059 L23.112605,19.7647059 Z" id="Portatil-cargando_1Light"></path>
        </g>
    </g>
</svg>

<svg width="24" height="24" viewBox="0 0 24 24" xmlns="http://www.w3.org/2000/svg"><path d="M9.224 9.113v5.737c0 .387.087.66.262.83.178.169.453.253.85.253h2.951c.397 0 .673-.084.85-.252.179-.172.263-.444.263-.83V9.112c0-.384-.084-.656-.262-.827-.178-.172-.454-.256-.85-.256h-2.952c-.393 0-.669.084-.847.262-.181.175-.265.444-.265.82zm1.842-2.172c-.024.024-.037.084-.037.168v.205h1.573V7.11c0-.084-.014-.148-.04-.168-.02-.02-.085-.033-.172-.033h-1.153c-.04-.004-.138 0-.171.033zm-.73 9.711c-.598 0-1.045-.151-1.368-.46-.323-.313-.48-.75-.48-1.338V9.113c0-.579.157-1.012.477-1.325.316-.312.75-.464 1.327-.47v-.212c0-.282.084-.508.253-.669.168-.165.403-.249.695-.249h1.153c.293 0 .528.08.696.246.168.164.252.393.252.675v.212c.578.007 1.015.158 1.328.464.323.316.477.75.477 1.331v5.741c0 .588-.158 1.029-.48 1.338-.32.31-.767.46-1.365.46-.014-.003-2.965-.003-2.965-.003zm1.177-6.33l-.817 1.927 1.032-.138.033-.003c.06 0 .115.02.162.06.053.044.084.111.084.182l-.004 1.183.918-2.064-1.143.155a.255.255 0 01-.195-.058.238.238 0 01-.084-.181l.014-1.062zm-1.174 2.458a.25.25 0 01-.228-.09.23.23 0 01-.034-.236l1.466-3.462a.255.255 0 01.275-.142c.115.02.199.121.199.236l-.024 2.027 1.294-.175a.258.258 0 01.229.09c.054.071.064.162.03.24l-1.563 3.512a.246.246 0 01-.275.138.235.235 0 01-.195-.236l.003-2.064c-.003.004-1.177.162-1.177.162zM1.012 7.67v7.312c0 .91.222 1.593.659 2.036.453.458 1.173.69 2.14.69l15.997-.007c.968 0 1.691-.232 2.142-.69.437-.443.662-1.125.662-2.036V7.66c0-.905-.222-1.584-.66-2.017-.45-.447-1.169-.676-2.144-.676l-15.993.01c-.975 0-1.697.225-2.144.676-.437.43-.66 1.109-.66 2.017zM3.815 18.66c-1.247 0-2.205-.33-2.85-.982-.622-.625-.935-1.532-.935-2.699V7.671c0-1.163.316-2.068.938-2.686.642-.639 1.6-.961 2.85-.961l15.994-.01c1.247 0 2.205.322 2.847.964.622.619.938 1.52.938 2.683v7.31c0 1.163-.316 2.074-.935 2.7-.645.652-1.603.981-2.85.981l-15.997.007zm19.298 1.106c.272 0 .49.211.49.477a.484.484 0 01-.49.477H.51a.484.484 0 01-.49-.474v-.003c0-.262.218-.477.49-.477h22.602z" fill="#5CB615" fill-rule="nonzero"/></svg>
